X:1
T:The Lass on Richmond Hill
T:James Hook (1746-1827) Accompaniment realised by William Alexander Barrett (1832-1891)
T:Words by Leonard McNally (1752-1820)
T:The Lass on Richmond Hill
T:Copyright © 
T:Copyright © 
T:Copyright © 
T:Copyright © 
C:James Hook (1746-1827)
C:Accompaniment realised by William
C:Alexander Barrett (1832-1891)
Z:Words by Leonard McNally
Z:(1752-1820)
Z:Copyright ©
%%score 1 { ( 2 4 ) | ( 3 5 ) }
L:1/8
M:2/4
K:Bb
V:1 treble-8 transpose=-12 nm="P1"
V:2 treble nm="Piano" snm="Pno."
V:4 treble 
V:3 bass 
V:5 bass 
V:1
 z | z4 | z4 | z4 | z2 z F | FB BB | (c/B/) (A/B/) ce | dB Gc | (B2{cB} A)F | FB BB | %10
w: ||||On|Rich- mond Hill there|lives _ a _ lass, More|bright than May- day|morn, _ Whose|charms all o- ther|
w: ||||||||||
 (c/B/) (A/B/) cB | AF G=E | F3 z | z4 | z2 z B | AF FB | AF FB | Ac ed | (d2{ed} c)B | AF FB | %20
w: maids _ sur- * pass, A|rose with- out a|thorn.||This|lass so neat, With|smiles so sweet, Has|won my right good|will, _ I'd|crowns re- sign To|
w: ||||||||||
 AF !fermata!fB | AB cA | B2 z F | FB Bd | d3 B | Ac ce | e3 c | d>c BA | BG !fermata!F_E | DF CA | %30
w: call her mine, Sweet|lass of Rich- mond|Hill, sweet|lass of Rich- mond|Hill, sweet|lass of Rich- mond|Hill, I'd|crowns re- sign to|call her mine, Sweet|lass of Rich- mond|
w: ||||||||||
 B3 |: z | z4 | z4 | z4 | z2 z F | FB BB | (c/B/) (A/B/) ce | dB Gc | (B2{cB} A)F | FB BB | %41
w: Hill.|||||Ye|Ze- phyrs gay than|fan _ the _ air, And|wan- ton in the|grove, _ Oh!|whis- per to my|
w: |||||How|hap- py will the|shep- * herd _ be, who|calls this nymph his|own, _ O|may her choice be|
 (c/B/) (A/B/) cB | AF G=E | F3 z | z4 | z2 z B | AF FB | AF FB | Ac ed | (d2{ed} c)B | AF FB | %51
w: char- * ming _ fair, I|die for her I|love.||This|lass so neat, With|smiles so sweet, Has|won my right good|will, _ I'd|crowns re- sign To|
w: fixed _ on _ me, Mine's|fixed on her a-|lone.||||||||
 AF !fermata!fB | AB cA | B2 z F | FB Bd | d3 B | Ac ce | e3 c | d>c BA | BG !fermata!F_E | DF CA | %61
w: call her mine, Sweet|lass of Rich- mond|Hill, sweet|lass of Rich- mond|Hill, sweet|lass of Rich- mond|Hill, I'd|crowns re- sign to|call her mine, Sweet|lass of Rich- mond|
w: ||||||||||
 B3 :| %62
w: Hill.|
w: |
V:2
"^Allegretto"!mf! (f/e/) |!<(! (d/f/d/B/)!<)!!>)!!>(! (A/c/F/e/) |!p! (d/f/d/B/) (A/c/F/e/) | %3
!<(! (d/B/f/d/)!<)!!>(! (c/e/!>)!d/c/) | ([DB][Fd] [DB]) z | z/ (F/D/F/) z/ (F/D/F/) | %6
 z/ (F/D/F/) z/ (F/C/F/) | z/ (F/D/F/) z/ (E/G/E/) | z/ (F/D/F/) z/ (F/A/F/) | %9
 z/ (F/D/F/) z/ (F/D/F/) | z/ (F/C/F/) z/ (=E/C/E/) | z/ (F/C/F/) z/ (=E/C/G/) | %12
 [A,F]!f!{/=e}f{/e}f{/e}f | (f/c/A/F/) (G/B/A/G/) | (F/A/c/A/) [FAcf] z | z ([A,_EF] [B,DF]) z | %16
 z [FB] [FA] z | z/ C/A/F/ z/ C/F/B/ | z ([Bd] [Ac]) z | z ([Aef] [Bdf]) z | %20
 z ([DF] !fermata![CF]) z | z/ ([CA]/z/[DB]/ z/ [Ec]/z/[CA]/) | z/ (D/F/B/ d) z | %23
 z/ (F/D/F/) z/ (F/D/F/) | z/ (F/D/F/) z/ (F/D/F/) | z/ (F/C/F/) z/ (F/C/F/) | z/ (C/F/A/ c)A | %27
 (B/F/A/F/) (B/F/A/^F/) | (G/B,/C/B,/) (A,/!fermata!C/F/C/) | [B,DF] z [A,CEF] z | z/ (D/F/B/ d) |: %31
!mf! (f/e/) |!<(! (d/f/d/B/)!<)!!>)!!>(! (A/c/F/e/) |!p! (d/f/d/B/) (A/c/F/e/) | %34
!<(! (d/B/f/d/)!<)!!>(! (c/e/!>)!d/c/) | ([DB][Fd] [DB]) z |!p! z/ (F/D/F/) z/ (F/D/F/) | %37
 z/ (F/D/F/) z/ (F/C/F/) | z/ (F/D/F/) z/ (E/G/E/) | z/ (F/D/F/) z/ (F/A/F/) | %40
 z/ (F/D/F/) z/ (F/D/F/) | z/ (F/C/F/) z/ (=E/C/E/) | z/ (F/C/F/) z/ (=E/C/G/) | %43
 [A,F]!f!{/=e}f{/e}f{/e}f | (f/c/A/F/) (G/B/A/G/) | (F/A/c/A/) [FAcf] z | z ([A,_EF] [B,DF]) z | %47
 z ([FB] [FA]) z | z/ C/A/F/ z/ C/F/B/ | z [Bd] [Ac] z | z ([Aef] [Bdf]) z | %51
 z ([DF] !fermata![CF]) z | z/ ([CA]/z/[DB]/ z/ [Ec]/z/[CA]/) | z/ (D/F/B/ d) z | %54
 z/ (F/D/F/) z/ (F/D/F/) | z/ (F/D/F/) z/ (F/D/F/) | z/ (F/C/F/) z/ (F/C/F/) | z/ (C/F/A/ c)A | %58
 (B/F/A/F/) (B/F/A/^F/) | (G/B,/C/B,/) (A,/!fermata!C/F/C/) | [B,DF] z [A,CEF] z | z/ (D/F/B/ d) :| %62
V:3
 z | B,,D,F,A,, | B,,D,F,A,, | B,,D,F,F,, | B,,F,, B,,, z | B,, z B,, z | B,, z A,, z | %7
 B,, z E, z | F, z F,, z | B,, z B,, z | A,, z G,, z | C, z C, z | F,[B,D][A,C][G,B,] | A,2 CB, | %14
 A,2 [F,,F,] z | z C, B,, z | z D, C, z | F,2 A,B, | F,3 z | z C B, z | z B, !fermata!A, z | %21
 F,3 F, | B,F, B,, z | B,, z B,, z | B,, z B,, z | F,, z F,, z | F,, z F,, z | B,, z D, z | %28
 =E, z !fermata!F, z | F, z F,, z | B,,3 |: z | B,,D,F,A,, | B,,D,F,A,, | B,,D,F,F,, | %35
 B,,F,, B,,, z | B,, z B,, z | B,, z A,, z | B,, z E, z | F, z F,, z | B,, z B,, z | A,, z G,, z | %42
 C, z C, z | F,[B,D][A,C][G,B,] | A,2 CB, | A,2 [F,,F,] z | z C, B,, z | z D, C, z | F,2 A,B, | %49
 F,3 z | z C B, z | z B, !fermata!A, z | F,3 F, | B,F, B,, z | B,, z B,, z | B,, z B,, z | %56
 F,, z F,, z | F,, z F,, z | B,, z D, z | =E, z !fermata!F, z | F, z F,, z | B,,3 :| %62
V:4
 x | F2 F2 | F2 F2 | F2 F[EA] | x4 | x4 | x4 | x4 | x4 | x4 | x4 | x4 | x4 | F2 =E2 | x4 | x4 | %16
 x4 | x4 | x F2 x | x4 | x4 | x4 | x4 | x4 | x4 | x4 | x4 | x4 | x4 | x4 | x3 |: x | F2 F2 | %33
 F2 F2 | F2 F[EA] | x4 | x4 | x4 | x4 | x4 | x4 | x4 | x4 | x4 | F2 =E2 | x4 | x4 | x4 | x4 | %49
 x F2 x | x4 | x4 | x4 | x4 | x4 | x4 | x4 | x4 | x4 | x4 | x4 | x3 :| %62
V:5
 x | x4 | x4 | x4 | x4 | x4 | x4 | x4 | x4 | x4 | x4 | x4 | x4 | F,2 C,2 | F,2 x2 | x4 | x4 | x4 | %18
 x4 | x4 | x4 | x4 | x4 | x4 | x4 | x4 | x4 | x4 | x4 | x4 | x3 |: x | x4 | x4 | x4 | x4 | x4 | %37
 x4 | x4 | x4 | x4 | x4 | x4 | x4 | F,2 C,2 | F,2 x2 | x4 | x4 | x4 | x4 | x4 | x4 | x4 | x4 | x4 | %55
 x4 | x4 | x4 | x4 | x4 | x4 | x3 :| %62

